src/assets/img/blugento-logo.svg

<svg width="495" height="148" xmlns="http://www.w3.org/2000/svg"><g fill-rule="nonzero" fill="none"><path d="M36.352 43.29c-1.644-2.374-4.385-3.73-7.307-3.73-2.375 0-4.932.847-6.576 2.374-2.01 1.865-3.107 4.576-3.107 8.474v38.481c0 3.902 1.097 6.611 3.107 8.478 1.644 1.525 4.201 2.204 6.576 2.204 2.922 0 5.663-1.188 7.307-3.559 2.557-4.07 2.74-13.224 2.74-26.446 0-13.224-.183-22.21-2.74-26.276zm15.344 65.438c-4.384 5.084-9.865 6.948-16.988 6.948-3.472 0-6.942-1.017-9.684-2.541-2.008-1.018-5.295-3.901-6.393-5.599v8.159H0V10.4L19.362.56v30.184c1.463-1.863 3.654-3.73 5.662-4.747 2.742-1.524 6.212-2.373 9.684-2.373 7.49 0 12.604 2.034 16.988 6.95 6.393 7.29 6.76 19.665 6.76 38.992 0 19.323-.367 31.869-6.76 39.162zm27.201.169c-6.027-4.241-9.68-9.718-9.68-20.398V10.4L88.581.56v86.921c0 7.968 4.2 12.036 13.15 12.036v16.106c-8.95 0-16.44-2.152-22.834-6.726zm69.538 6.779v-8.14c-1.646 2.039-4.204 4.41-6.579 5.599-2.739 1.524-6.21 2.541-9.681 2.541-7.854 0-13.152-2.205-17.535-6.948-3.837-4.072-5.482-8.987-5.482-19.328V23.622h19.363v65.606c0 6.953 4.202 10.343 9.5 10.343s9.498-3.39 9.498-10.343V23.622h19.365v92.054h-18.45.001z" fill="#1574C4"/><path d="M217.992 50.533c0-3.73-1.095-6.44-2.921-8.306-1.644-1.695-4.019-2.543-6.76-2.543-3.471 0-5.298 1.526-7.124 3.732-2.926 3.559-2.926 12.441-2.926 23.46s0 19.663 2.926 23.225c1.826 2.204 3.653 3.563 7.124 3.563 2.741 0 5.3-.852 6.941-2.547 1.828-1.865 2.74-4.406 2.74-8.138V50.533zm11.143 90.164c-4.931 4.58-12.968 7.29-20.824 7.29-8.038 0-15.527-2.202-20.826-6.95-5.845-5.424-8.036-13.303-8.036-20.76h19.182c0 3.388.729 7.371 2.737 9.571 1.645 1.696 4.021 2.708 6.943 2.708 2.922 0 5.3-1.181 6.941-2.875 2.01-2.208 2.74-6.52 2.74-12.116v-15.257c-1.643 2.033-3.652 3.896-5.479 4.914-2.558 1.53-5.481 2.038-9.318 2.038-8.036 0-12.236-1.865-16.622-6.615-6.028-6.61-7.672-16.784-7.672-35.938 0-19.156 1.644-29.497 7.672-36.11 4.386-4.746 8.402-6.973 16.622-6.973 3.472 0 6.944.85 9.866 2.373 2.01 1.018 4.2 2.884 5.663 4.747v-7.12h18.633v92.753c0 11.526-2.925 19.403-8.222 24.32zm56.313-97.578c-1.645-2.035-3.836-3.558-7.305-3.558-3.474 0-5.664 1.523-7.31 3.558-2.193 2.543-2.921 9.326-2.921 18.48h20.273c0-9.154-.546-15.937-2.737-18.48zm-17.536 31.7c0 10.174.547 17.972 2.921 21.193 1.464 2.035 4.006 3.544 7.479 3.544 3.287 0 5.49-1.34 7.319-3.544 1.46-1.697 2.374-5.256 2.374-7.968h19.18c-.365 7.456-2.554 14.917-8.04 20.512-4.932 5.085-12.434 7.105-20.833 7.105-8.952 0-14.967-1.849-20.813-7.273-8.222-7.63-8.951-22.55-8.951-38.822 0-16.275.73-31.193 8.95-38.822 5.847-5.425 12.789-7.12 20.645-7.12 8.034 0 14.977 1.526 20.641 7.12 9.312 9.156 8.585 27.293 8.765 44.075h-39.637zm89.552 40.842V50.07c0-6.95-4.207-10.34-9.5-10.34-5.3 0-9.503 3.39-9.503 10.34v65.592H319.1V23.624h18.633v7.969c1.645-2.037 4.023-4.409 6.393-5.596 2.739-1.524 6.211-2.373 9.682-2.373 7.857 0 13.154 2.206 17.54 6.95 3.833 4.068 5.476 8.987 5.476 19.326v65.761H357.464zm46.5-5.421c-6.03-4.41-9.683-11.19-9.683-21.701V37.353h-9.86V23.622h9.86V10.4L413.643.63v22.992h13.338v13.731h-13.338v50.169c0 8.306 4.57 12.037 13.704 12.037v16.106c-9.134 0-16.808-.681-23.383-5.425zM487.528 32.94c-5.828-7.29-13.908-9.324-23.497-9.324-9.594 0-17.674 2.034-23.503 9.325-6.205 7.798-6.955 21.531-6.955 36.617 0 15.087.75 28.82 6.955 36.615 2.227 2.787 4.787 4.826 7.63 6.287V47.882s5.178-1.037 15.555-1.037c10.038 0 16.188 1.037 16.188 1.037v64.578c2.844-1.461 5.402-3.5 7.627-6.287 6.204-7.796 6.959-21.528 6.959-36.615 0-15.086-.755-28.82-6.959-36.617" fill="#F57925"/><path d="M450.044 49.382v64.02s3.263 1.916 8.092 3.509c6.224 2.054 8.2 2.57 8.2 2.57V55.452s-3.323-1.435-8.563-3.415c-6.133-2.32-7.729-2.655-7.729-2.655" fill="#F57925"/></g></svg>

<?xml version="1.0" encoding="UTF-8"?>
<svg width="495px" height="148px" viewBox="0 0 495 148" version="1.1" xmlns="http://www.w3.org/2000/svg" xmlns:xlink="http://www.w3.org/1999/xlink">
    <g  stroke="none" stroke-width="1" fill="none" fill-rule="evenodd">
        <g id="Logo_blugento__Vollton-(1)" fill-rule="nonzero">
            <path d="M36.352,43.29 C34.708,40.916 31.967,39.56 29.045,39.56 C26.67,39.56 24.113,40.407 22.469,41.934 C20.459,43.799 19.362,46.51 19.362,50.408 L19.362,88.889 C19.362,92.791 20.459,95.5 22.469,97.367 C24.113,98.892 26.67,99.571 29.045,99.571 C31.967,99.571 34.708,98.383 36.352,96.012 C38.909,91.942 39.092,82.788 39.092,69.566 C39.092,56.342 38.909,47.356 36.352,43.29 Z M51.696,108.728 C47.312,113.812 41.831,115.676 34.708,115.676 C31.236,115.676 27.766,114.659 25.024,113.135 C23.016,112.117 19.729,109.234 18.631,107.536 L18.631,115.695 L0,115.695 L0,10.4 L19.362,0.56 L19.362,30.744 C20.825,28.881 23.016,27.014 25.024,25.997 C27.766,24.473 31.236,23.624 34.708,23.624 C42.198,23.624 47.312,25.658 51.696,30.574 C58.089,37.864 58.456,50.239 58.456,69.566 C58.456,88.889 58.089,101.435 51.696,108.728 Z M78.897,108.897 C72.87,104.656 69.217,99.179 69.217,88.499 L69.217,10.4 L88.581,0.56 L88.581,87.481 C88.581,95.449 92.781,99.517 101.731,99.517 L101.731,115.623 C92.781,115.623 85.291,113.471 78.897,108.897 Z M148.435,115.676 L148.435,107.536 C146.789,109.575 144.231,111.946 141.856,113.135 C139.117,114.659 135.646,115.676 132.175,115.676 C124.321,115.676 119.023,113.471 114.64,108.728 C110.803,104.656 109.158,99.741 109.158,89.4 L109.158,23.622 L128.521,23.622 L128.521,89.228 C128.521,96.181 132.723,99.571 138.021,99.571 C143.319,99.571 147.519,96.181 147.519,89.228 L147.519,23.622 L166.884,23.622 L166.884,115.676 L148.434,115.676 L148.435,115.676 Z" id="Shape" fill="#1574C4"></path>
            <path d="M217.992,50.533 C217.992,46.803 216.897,44.093 215.071,42.227 C213.427,40.532 211.052,39.684 208.311,39.684 C204.84,39.684 203.013,41.21 201.187,43.416 C198.261,46.975 198.261,55.857 198.261,66.876 C198.261,77.895 198.261,86.539 201.187,90.101 C203.013,92.305 204.84,93.664 208.311,93.664 C211.052,93.664 213.611,92.812 215.252,91.117 C217.08,89.252 217.992,86.711 217.992,82.979 L217.992,50.533 Z M229.135,140.697 C224.204,145.277 216.167,147.987 208.311,147.987 C200.273,147.987 192.784,145.785 187.485,141.037 C181.64,135.613 179.449,127.734 179.449,120.277 L198.631,120.277 C198.631,123.665 199.36,127.648 201.368,129.848 C203.013,131.544 205.389,132.556 208.311,132.556 C211.233,132.556 213.611,131.375 215.252,129.681 C217.262,127.473 217.992,123.161 217.992,117.565 L217.992,102.308 C216.349,104.341 214.34,106.204 212.513,107.222 C209.955,108.752 207.032,109.26 203.195,109.26 C195.159,109.26 190.959,107.395 186.573,102.645 C180.545,96.035 178.901,85.861 178.901,66.707 C178.901,47.551 180.545,37.21 186.573,30.597 C190.959,25.851 194.975,23.624 203.195,23.624 C206.667,23.624 210.139,24.474 213.061,25.997 C215.071,27.015 217.261,28.881 218.724,30.744 L218.724,23.624 L237.357,23.624 L237.357,116.377 C237.357,127.903 234.432,135.78 229.135,140.697 Z M285.448,43.119 C283.803,41.084 281.612,39.561 278.143,39.561 C274.669,39.561 272.479,41.084 270.833,43.119 C268.64,45.662 267.912,52.445 267.912,61.599 L288.185,61.599 C288.185,52.445 287.639,45.662 285.448,43.119 Z M267.912,74.819 C267.912,84.993 268.459,92.791 270.833,96.012 C272.297,98.047 274.839,99.556 278.312,99.556 C281.599,99.556 283.802,98.216 285.631,96.012 C287.091,94.315 288.005,90.756 288.005,88.044 L307.185,88.044 C306.82,95.5 304.631,102.961 299.145,108.556 C294.213,113.641 286.711,115.661 278.312,115.661 C269.36,115.661 263.345,113.812 257.499,108.388 C249.277,100.758 248.548,85.838 248.548,69.566 C248.548,53.291 249.278,38.373 257.498,30.744 C263.345,25.319 270.287,23.624 278.143,23.624 C286.177,23.624 293.12,25.15 298.784,30.744 C308.096,39.9 307.369,58.037 307.549,74.819 L267.912,74.819 Z M357.464,115.661 L357.464,50.07 C357.464,43.12 353.257,39.73 347.964,39.73 C342.664,39.73 338.461,43.12 338.461,50.07 L338.461,115.662 L319.1,115.662 L319.1,23.624 L337.733,23.624 L337.733,31.593 C339.378,29.556 341.756,27.184 344.126,25.997 C346.865,24.473 350.337,23.624 353.808,23.624 C361.665,23.624 366.962,25.83 371.348,30.574 C375.181,34.642 376.824,39.561 376.824,49.9 L376.824,115.661 L357.465,115.661 L357.464,115.661 Z M403.964,110.24 C397.934,105.83 394.281,99.05 394.281,88.539 L394.281,37.353 L384.421,37.353 L384.421,23.622 L394.281,23.622 L394.281,10.4 L413.643,0.63 L413.643,23.622 L426.981,23.622 L426.981,37.353 L413.643,37.353 L413.643,87.522 C413.643,95.828 418.213,99.559 427.347,99.559 L427.347,115.665 C418.213,115.665 410.539,114.984 403.964,110.24 Z" id="Shape" fill="#F57925"></path>
            <path d="M487.528,32.94 C481.7,25.65 473.62,23.616 464.031,23.616 C454.437,23.616 446.357,25.65 440.528,32.941 C434.323,40.739 433.573,54.472 433.573,69.558 C433.573,84.645 434.323,98.378 440.528,106.173 C442.755,108.96 445.315,110.999 448.158,112.46 L448.158,47.882 C448.158,47.882 453.336,46.845 463.713,46.845 C473.751,46.845 479.901,47.882 479.901,47.882 L479.901,112.46 C482.745,110.999 485.303,108.96 487.528,106.173 C493.732,98.377 494.487,84.645 494.487,69.558 C494.487,54.472 493.732,40.738 487.528,32.941" id="Shape" fill="#F57925"></path>
            <path d="M450.044,49.382 L450.044,113.402 C450.044,113.402 453.307,115.318 458.136,116.911 C464.36,118.965 466.336,119.481 466.336,119.481 L466.336,55.452 C466.336,55.452 463.013,54.017 457.773,52.037 C451.64,49.717 450.044,49.382 450.044,49.382" id="Shape" fill="#F57925"></path>
        </g>
    </g>
</svg>
